icon/fa/people-pulling.svg

<svg xmlns="http://www.w3.org/2000/svg" viewBox="0 0 576 512"><!--! Font Awesome Free 6.1.2 by @fontawesome - https://fontawesome.com License - https://fontawesome.com/license/free (Icons: CC BY 4.0, Fonts: SIL OFL 1.1, Code: MIT License) Copyright 2022 Fonticons, Inc.--><path d="M32 48C32 21.49 53.49 0 80 0c26.5 0 48 21.49 48 48s-21.5 48-48 48c-26.51 0-48-21.49-48-48zm86.3 80c11.8 0 25.2 2.5 36.9 7.4l134.1 55.8c13.3-20.1 30.8-34.6 53.4-44.3l11-4.9c20.8-9.2 42.4-14 66-14 44.6 0 84.8 26.8 101.9 67.9l14.5 36.8 22.2 10.7c15.8 7.9 22.2 27.1 14.3 42.9-7.9 15.8-27.1 22.2-42.9 14.3L503 287.3c-10.3-5.2-18.4-13.9-22.8-24.5l-9.6-23-19.3 65.5 49.5 54.1c5.4 5.9 9.3 13 11.2 20.8l23 92c4.3 17.2-6.1 34.6-23.2 38.8-17.2 4.3-34.6-6.1-39.7-23.2l-21.2-88.2-70.6-77.1c-14.8-16.1-21.2-38.6-14.7-59.7l16.9-63.5c-.9.4-1.9.8-2.8 1.2l-11 4.9c-15.3 6.8-27.3 19.2-33.5 34.7l-1.5 3.8c-5.1 12.8-17.6 20.5-30.7 19.2-3.8.8-7.6 0-11.3-1.6l-118.4-49.3 57.9 260.9c3.9 17.2-7 34.3-24.3 38.1-17.2 3.9-34.3-7-38.1-24.3l-30-134.9h-15.7l20.5 122.7c2.9 17.5-8.9 34-26.3 36.9-17.47 2.9-33.96-8.9-36.86-26.3L56.35 340.8C50.48 347.6 41.75 352 32 352c-17.67 0-32-14.3-32-32.9v-128c0-34.4 28.65-64 64-64l54.3.9zM416 48c0-26.51 21.5-48 48-48s48 21.49 48 48-21.5 48-48 48-48-21.49-48-48zm-59.3 296.2 40.7 44.4-14.5 36.2c-2.4 6.1-6 11.6-10.6 16.1l-61.7 61.7c-12.5 12.5-32.7 12.5-45.2 0s-12.5-32.7 0-45.2l59.3-59.4 25-62.4c2.1 3 4.5 5.8 7 8.6z"/></svg>

<svg xmlns="http://www.w3.org/2000/svg" viewBox="0 0 576 512" height="1em" width="1em">
<!--! Font Awesome Free 6.1.2 by @fontawesome - https://fontawesome.com License - https://fontawesome.com/license/free (Icons: CC BY 4.0, Fonts: SIL OFL 1.1, Code: MIT License) Copyright 2022 Fonticons, Inc.-->
  <path d="M32 48C32 21.49 53.49 0 80 0C106.5 0 128 21.49 128 48C128 74.51 106.5 96 80 96C53.49 96 32 74.51 32 48V48zM118.3 128C130.1 128 143.5 130.5 155.2 135.4L289.3 191.2C302.6 171.1 320.1 156.6 342.7 146.9L353.7 142C374.5 132.8 396.1 128 419.7 128C464.3 128 504.5 154.8 521.6 195.9L536.1 232.7L558.3 243.4C574.1 251.3 580.5 270.5 572.6 286.3C564.7 302.1 545.5 308.5 529.7 300.6L503 287.3C492.7 282.1 484.6 273.4 480.2 262.8L470.6 239.8L451.3 305.3L500.8 359.4C506.2 365.3 510.1 372.4 512 380.2L535 472.2C539.3 489.4 528.9 506.8 511.8 511C494.6 515.3 477.2 504.9 472.1 487.8L450.9 399.6L380.3 322.5C365.5 306.4 359.1 283.9 365.6 262.8L382.5 199.3C381.6 199.7 380.6 200.1 379.7 200.5L368.7 205.4C353.4 212.2 341.4 224.6 335.2 240.1L333.7 243.9C328.6 256.7 316.1 264.4 303 263.1C299.2 263.9 295.4 263.1 291.7 261.5L173.3 212.2L231.2 473.1C235.1 490.3 224.2 507.4 206.9 511.2C189.7 515.1 172.6 504.2 168.8 486.9L138.8 352H123.1L143.6 474.7C146.5 492.2 134.7 508.7 117.3 511.6C99.83 514.5 83.34 502.7 80.44 485.3L56.35 340.8C50.48 347.6 41.75 352 32 352C14.33 352 0 337.7 0 319.1V191.1C0 156.7 28.65 127.1 64 127.1L118.3 128zM416 48C416 21.49 437.5 0 464 0C490.5 0 512 21.49 512 48C512 74.51 490.5 96 464 96C437.5 96 416 74.51 416 48V48zM356.7 344.2L397.4 388.6L382.9 424.8C380.5 430.9 376.9 436.4 372.3 440.9L310.6 502.6C298.1 515.1 277.9 515.1 265.4 502.6C252.9 490.1 252.9 469.9 265.4 457.4L324.7 398L349.7 335.6C351.8 338.6 354.2 341.4 356.7 344.2H356.7z"/>
</svg>
